Imports/easyAnalysis/Icons/Fitting.svg

<?xml version="1.0" encoding="utf-8"?>
<svg viewBox="0 0 90 90" version="1.1" xmlns="http://www.w3.org/2000/svg">
  <g transform="matrix(1, 0, 0, 1, 5.043002, 5.000003)">
    <path d="M -0.033 0 L 79.967 0 L 79.967 40.5 C 77.867 39 76.167 38.5 73.967 38.5 C 71.067 31.6 68.567 25.2 65.067 19.2 C 66.167 15.8 65.767 12.4 63.167 9.2 C 60.567 6 55.267 4.4 50.867 6.6 C 47.267 8.3 45.367 11.7 45.167 14.7 C 43.367 15.9 42.467 16.7 40.567 19.3 C 38.667 21.9 36.567 26.6 34.967 30.3 C 28.967 30.7 26.667 33.3 25.167 36.9 C 23.667 40.5 25.167 46.4 28.167 48.5 C 26.867 52.1 25.367 55 22.567 57.4 C 19.867 53.6 15.967 52.7 12.467 53.2 C 8.967 53.6 5.067 56.6 4.167 60.8 L -0.033 60.8 Z"/>
    <path d="M 46.667 21.5 C 50.267 26.2 55.967 27.4 61.167 24.4 C 63.567 29.8 65.967 35.2 68.067 40.2 C 63.667 42.9 62.567 48.8 64.567 53.1 C 66.567 57.4 70.567 59.6 76.267 58.8 C 77.567 61.6 78.767 64.1 80.067 66.7 C 80.037 71.2 80.063 75.9 80.067 80 L -0.033 80 C 0.086 75.3 -0.153 71.1 -0.033 66.9 C 1.467 66.9 3.167 66.91 4.567 66.9 C 6.467 71.7 11.867 74.6 16.767 73.2 C 21.667 71.8 24.167 67.7 24.467 63.8 C 29.167 60.6 32.167 55.9 33.967 50.8 C 38.167 51.3 42.667 48.5 44.267 44.3 C 45.867 40.1 44.867 35.4 40.767 32.2 C 42.267 28.2 44.167 24.4 46.667 21.4 Z"/>
    <circle cy="63.2" cx="14.2" r="4.4" />
    <circle cy="40.6" cx="34.8" r="4.4" />
    <circle cy="15.8" cx="55.4" r="4.4" />
    <circle cy="48.8" cx="73.9" r="4.4" />
   </g>
</svg>

<svg width="80" height="80" xmlns="http://www.w3.org/2000/svg">

 <g>
  <title>background</title>
  <rect fill="none" id="canvas_background" height="82" width="82" y="-1" x="-1"/>
 </g>
 <g>
  <title>Layer 1</title>
  <g id="svg_8">
   <path id="svg_2" d="m0.034747,0l80,0l0,40.5c-2.1,-1.5 -3.8,-2 -6,-2c-2.9,-6.9 -5.4,-13.3 -8.9,-19.3c1.1,-3.4 0.7,-6.8 -1.9,-10c-2.6,-3.2 -7.9,-4.8 -12.3,-2.6c-3.6,1.7 -5.5,5.1 -5.7,8.1c-1.8,1.2 -2.7,2 -4.6,4.6c-1.9,2.6 -4,7.3 -5.6,11c-6,0.4 -8.3,3 -9.8,6.6c-1.5,3.6 0,9.5 3,11.6c-1.3,3.6 -2.8,6.5 -5.6,8.9c-2.7,-3.8 -6.6,-4.7 -10.1,-4.2c-3.5,0.4 -7.4,3.4 -8.3,7.6l-4.2,0l0,-60.8z"/>
   <path id="svg_3" d="m46.734747,21.5c3.6,4.7 9.3,5.9 14.5,2.9c2.4,5.4 4.8,10.8 6.9,15.8c-4.4,2.7 -5.5,8.6 -3.5,12.9c2,4.3 6,6.5 11.7,5.7c1.3,2.8 2.5,5.3 3.8,7.9c-0.03,4.5 -0.004,9.2 0,13.3l-80.1,0c0.119,-4.7 -0.12,-8.9 0,-13.1c1.5,0 3.2,0.01 4.6,0c1.9,4.8 7.3,7.7 12.2,6.3c4.9,-1.4 7.4,-5.5 7.7,-9.4c4.7,-3.2 7.7,-7.9 9.5,-13c4.2,0.5 8.7,-2.3 10.3,-6.5c1.6,-4.2 0.6,-8.9 -3.5,-12.1c1.5,-4 3.4,-7.8 5.9,-10.8l0,0.1z"/>
   <circle transform="matrix(1,0,0,1,5.043002,5.000003) " id="svg_4" r="4.4" cx="9.224745" cy="58.029024"/>
   <circle transform="matrix(1,0,0,1,5.043002,5.000003) " id="svg_5" r="4.4" cx="29.824745" cy="35.599997"/>
   <circle transform="matrix(1,0,0,1,5.043002,5.000003) " id="svg_6" r="4.4" cx="50.424745" cy="10.799997"/>
   <circle transform="matrix(1,0,0,1,5.043002,5.000003) " id="svg_7" r="4.4" cx="68.924745" cy="43.799997"/>
  </g>
 </g>
</svg>
